X: 7427
T: Cloone, The
R: reel
M: 4/4
K: Gmajor
|:DGGG DGBG|dGBG AEGE|DGGG GGGB|1 dBAc BGGE:|2 dBAc BGBd||
ggeg dgbg|~a3b ageg|dggg abbb|agab gdef|
ggeg dgbg|~a3b agef|geee dBBB|dBAc BGGE||

